resources/haticons/SVG/nextcloud.svg

<!-- Generated by IcoMoon.io -->
<svg version="1.1" xmlns="http://www.w3.org/2000/svg" width="24" height="24" viewBox="0 0 24 24">
<title>nextcloud</title>
<path fill="#0082c9" d="M12.018 6.537c-2.5 0-4.6 1.712-5.241 4.015-0.56-1.232-1.793-2.105-3.225-2.105-1.958 0.010-3.543 1.595-3.552 3.552v0.001c0.009 1.958 1.594 3.543 3.551 3.553h0.001c1.432 0 2.664-0.874 3.224-2.106 0.641 2.304 2.742 4.016 5.242 4.016 2.487 0 4.576-1.693 5.231-3.977 0.569 1.21 1.783 2.067 3.198 2.067 1.959-0.008 3.545-1.594 3.553-3.552v-0.001c-0.009-1.959-1.594-3.544-3.552-3.553h-0.001c-1.416 0-2.63 0.858-3.199 2.067-0.654-2.284-2.743-3.978-5.23-3.977zM12.018 8.622c1.878 0 3.378 1.5 3.378 3.378s-1.5 3.378-3.378 3.378c-0.004 0-0.010 0-0.015 0-1.857 0-3.362-1.505-3.362-3.362 0-0.006 0-0.011 0-0.017v0.001c0-1.878 1.5-3.378 3.377-3.378zM3.552 10.532c0.822 0 1.467 0.645 1.467 1.468s-0.644 1.467-1.467 1.468c-0.004 0-0.010 0-0.015 0-0.802 0-1.452-0.65-1.452-1.452 0-0.006 0-0.011 0-0.017v0.001c0-0.823 0.644-1.467 1.467-1.468zM20.447 10.532c0.823 0 1.468 0.645 1.468 1.468s-0.645 1.468-1.468 1.468c-0.004 0-0.010 0-0.015 0-0.802 0-1.452-0.65-1.452-1.452 0-0.006 0-0.011 0-0.017v0.001c0-0.823 0.644-1.467 1.467-1.468z"></path>
</svg>

<svg xmlns="http://www.w3.org/2000/svg" width="24" height="24"><path fill="#0082c9" d="M12.018 6.537c-2.5 0-4.6 1.712-5.241 4.015-.56-1.232-1.793-2.105-3.225-2.105A3.57 3.57 0 0 0 0 11.999V12a3.57 3.57 0 0 0 3.551 3.553h.001c1.432 0 2.664-.874 3.224-2.106.641 2.304 2.742 4.016 5.242 4.016 2.487 0 4.576-1.693 5.231-3.977.569 1.21 1.783 2.067 3.198 2.067A3.567 3.567 0 0 0 24 12.001V12a3.569 3.569 0 0 0-3.552-3.553h-.001c-1.416 0-2.63.858-3.199 2.067-.654-2.284-2.743-3.978-5.23-3.977zm0 2.085c1.878 0 3.378 1.5 3.378 3.378s-1.5 3.378-3.378 3.378h-.015a3.362 3.362 0 0 1-3.362-3.362v-.017V12c0-1.878 1.5-3.378 3.377-3.378zm-8.466 1.91c.822 0 1.467.645 1.467 1.468s-.644 1.467-1.467 1.468h-.015c-.802 0-1.452-.65-1.452-1.452v-.017V12c0-.823.644-1.467 1.467-1.468zm16.895 0c.823 0 1.468.645 1.468 1.468s-.645 1.468-1.468 1.468h-.015c-.802 0-1.452-.65-1.452-1.452v-.017V12c0-.823.644-1.467 1.467-1.468z"/></svg>
